public/hero-hills1.svg

<svg width="550" height="220" viewBox="0 0 550 220" fill="none" xmlns="http://www.w3.org/2000/svg">
<path d="M0.953385 220C0.835658 219.198 0.716926 218.396 0.547882 217.248C1.41222 216.716 2.35403 216.028 3.38439 215.52C11.8154 211.359 20.2897 207.284 28.7007 203.085C65.8832 184.521 103.037 165.897 140.233 147.359C148.805 143.086 157.5 139.06 166.143 134.931C173.797 131.274 181.456 127.626 189.118 123.985C196.12 120.659 203.311 117.677 210.094 113.952C220.929 108.003 232.542 103.957 243.886 99.2386C250.612 96.4413 257.283 93.5072 263.985 90.6516C269.765 88.1894 275.564 85.7745 281.338 83.2982C287.114 80.8209 292.871 78.2983 298.632 75.7848C304.559 73.1989 310.446 70.5113 316.418 68.033C323.311 65.1723 330.241 62.3881 337.225 59.7539C349.323 55.1897 361.466 50.7442 373.606 46.2928C382.069 43.1886 390.554 40.1418 399.04 37.099C405.47 34.7938 411.876 32.405 418.368 30.286C427.88 27.1798 437.431 24.1833 447.018 21.3206C457.299 18.2507 467.6 15.227 477.973 12.4911C485.692 10.4566 493.527 8.85467 501.334 7.17128C506.652 6.02521 512.001 5.01598 517.355 4.048C521.991 3.20983 526.634 2.35958 531.308 1.79811C537.34 1.07364 543.331 -0.13985 549.451 0.0110821V219.998H0.953385V220Z" fill="#EDF2F8"/>
</svg>

<svg xmlns="http://www.w3.org/2000/svg" width="550" height="220" fill="none">
    <path fill="#EDF2F8" d="m1 220-.5-2.8 2.9-1.7 25.3-12.4 111.5-55.7c8.6-4.3 17.3-8.3 26-12.5l23-11c7-3.2 14.1-6.2 20.9-10 10.8-5.9 22.4-10 33.8-14.7l20-8.5 17.4-7.4 17.3-7.5c6-2.6 11.8-5.3 17.8-7.8 7-2.8 13.8-5.6 20.8-8.2 12.1-4.6 24.3-9 36.4-13.5L399 37c6.5-2.3 12.9-4.7 19.4-6.8A1179 1179 0 0 1 478 12.5c7.7-2 15.5-3.6 23.3-5.3C506.7 6 512 5 517.3 4c4.7-.8 9.3-1.6 14-2.2 6-.7 12-2 18.2-1.8v220H1Z"/>
</svg>
